public/images/close.svg

<svg height="512" viewBox="0 0 32 32" width="512" xmlns="http://www.w3.org/2000/svg"><g id="Layer_22" data-name="Layer 22"><path d="m21 12.46-3.59 3.54 3.59 3.54a1 1 0 0 1 0 1.46 1 1 0 0 1 -.71.29 1 1 0 0 1 -.7-.29l-3.59-3.59-3.54 3.59a1 1 0 0 1 -.7.29 1 1 0 0 1 -.71-.29 1 1 0 0 1 0-1.41l3.54-3.59-3.54-3.54a1 1 0 0 1 1.41-1.41l3.54 3.54 3.54-3.54a1 1 0 0 1 1.46 1.41zm4.9 13.44a14 14 0 1 1 0-19.8 14 14 0 0 1 0 19.8zm-1.41-18.39a12 12 0 1 0 0 17 12 12 0 0 0 0-17z"/></g></svg>

<svg height="512" viewBox="0 0 32 32" width="512" xmlns="http://www.w3.org/2000/svg"><path d="M21 12.46L17.41 16 21 19.54A1 1 0 0121 21a1 1 0 01-.71.29 1 1 0 01-.7-.29L16 17.41 12.46 21a1 1 0 01-.7.29 1 1 0 01-.71-.29 1 1 0 010-1.41L14.59 16l-3.54-3.54a1 1 0 011.41-1.41L16 14.59l3.54-3.54A1 1 0 0121 12.46zm4.9 13.44a14 14 0 110-19.8 14 14 0 010 19.8zM24.49 7.51a12 12 0 100 17 12 12 0 000-17z" data-name="Layer 22"/></svg>
